static/icons/ar.svg

<svg xmlns="http://www.w3.org/2000/svg" xmlns:xlink="http://www.w3.org/1999/xlink" width="40" height="24" viewBox="0 0 40 24">
  <defs>
    <path id="a" d="M34.4,17.6 C34.4,18.04 34.04,18.4 33.6,18.4 L6.4,18.4 C5.9584,18.4 5.6,18.04 5.6,17.6 L5.6,16.8 C6.4832,16.8 7.2,16.0848 7.2,15.2 L7.2,8.8 C7.2,7.9168 6.4832,7.2 5.6,7.2 L5.6,6.4 C5.6,5.9584 5.9584,5.6 6.4,5.6 L33.6,5.6 C34.04,5.6 34.4,5.9584 34.4,6.4 L34.4,17.6 Z M33.6,4 L6.4,4 C5.0768,4 4,5.0768 4,6.4 L4,8.8 L4,15.2 L4,17.6 C4,18.9232 5.0768,20 6.4,20 L33.6,20 C34.9232,20 36,18.9232 36,17.6 L36,6.4 C36,5.0768 34.9232,4 33.6,4 Z M19.6672,12.184 L16,9.6688 L16,14.4 L19.6672,16.6 L19.6672,12.184 Z M20.3328,12.184 L20.3328,16.6 L24,14.4 L24,9.6688 L20.3328,12.184 Z M16.5872,9.248 L20,7.2 L23.4128,9.248 L20,11.5888 L16.5872,9.248 Z"/>
  </defs>
  <g fill-rule="evenodd">
    <use xlink:href="#a"/>
  </g>
</svg>

<svg xmlns="http://www.w3.org/2000/svg" xmlns:xlink="http://www.w3.org/1999/xlink" width="40" height="24">
    <defs>
        <path id="a" d="M34.4 17.6c0 .44-.36.8-.8.8H6.4c-.442 0-.8-.36-.8-.8v-.8a1.6 1.6 0 0 0 1.6-1.6V8.8a1.6 1.6 0 0 0-1.6-1.6v-.8a.8.8 0 0 1 .8-.8h27.2c.44 0 .8.358.8.8v11.2zM33.6 4H6.4A2.403 2.403 0 0 0 4 6.4V17.6C4 18.923 5.077 20 6.4 20h27.2c1.323 0 2.4-1.077 2.4-2.4V6.4C36 5.077 34.923 4 33.6 4zm-13.933 8.184L16 9.669V14.4l3.667 2.2v-4.416zm.666 0V16.6L24 14.4V9.669l-3.667 2.515zm-3.746-2.936L20 7.2l3.413 2.048L20 11.588l-3.413-2.34z"/>
    </defs>
    <use fill-rule="evenodd" xlink:href="#a"/>
</svg>
